style-guide/assets/xd-icons-pages-tiny.svg

<?xml version="1.0" encoding="UTF-8"?>
<svg width="12px" height="12px" viewBox="0 0 12 12" version="1.1" xmlns="http://www.w3.org/2000/svg" xmlns:xlink="http://www.w3.org/1999/xlink">
    <!-- Generator: Sketch 51.3 (57544) - http://www.bohemiancoding.com/sketch -->
    <title>documents</title>
    <desc>Created with Sketch.</desc>
    <defs></defs>
    <g id="documents" stroke="none" stroke-width="1" fill="none" fill-rule="evenodd">
        <path d="M3,10 L6,10 L6,5 L3,5 L3,10 Z M7,3 C7.553,3 8,3.448 8,4 L8,11 C8,11.552 7.553,12 7,12 L2,12 C1.447,12 1,11.552 1,11 L1,4 C1,3.448 1.447,3 2,3 L7,3 Z M10,0 C10.553,0 11,0.448 11,1 L11,8 C11,8.552 10.553,9 10,9 C9.447,9 9,8.552 9,8 L9,2 L5,2 C4.447,2 4,1.552 4,1 C4,0.448 4.447,0 5,0 L10,0 Z" id="Fill-1" fill="#000000"></path>
    </g>
</svg>

<svg viewBox="0 0 12 12" xmlns="http://www.w3.org/2000/svg">
  <path d="M3 10h3V5H3v5zm4-7a1 1 0 0 1 1 1v7a1 1 0 0 1-1 1H2a1 1 0 0 1-1-1V4a1 1 0 0 1 1-1h5zm3-3a1 1 0 0 1 1 1v7a1 1 0 1 1-2 0V2H5a1 1 0 1 1 0-2h5z" fill="#000" fill-rule="evenodd"/>
</svg>
